X: 45
T: POLKAS: Timmy O'Connor's Set
T: Timmy O'Connor's / John Brosnan's No. 1
C: C: Trad.; S: Timmy O'Connor
C: Set Leaders: Anton, Sophie
Z: Anton Zille ed., Oleg Naumov arr.; slainte at The Session
N: https://thesession.org/members/26966/sets/92004
R: Polka
M: 2/4
L: 1/8
Q: 1/4=140
K: Dmaj
"D"D>E FA|Bc d2|"G"B>A FA|"A"B/c/B/A/ FE|
"D"D>E FA|Bc dc/d/|"G"BA "A"FE|1 "D"D2 DA,:|2 "D"D2 D2||
"Bm"d>c BA|Bc d2|"G"B>A FA|"A"B/c/B/A/ FA|
"Bm"d>c BA|Bc dc/d/|"G"BA "A"FE|"D"D2 DA|
"Bm"d>c BA|Bc d2|"G"B>A FA|"A"B/c/B/A/ FE|
"Bm"D>E "D/A"FA|"G"Bc "D/F#"dc/d/|"G"BA "A"FE|"D"D2 DA,||
T: Nell Fee's (Dmaj) / John Brosnan's No. 2
K: Dmaj
|:"D"D2 DB|AF F>B|AF DE|"G"FE "A"EF|
"D"D2 DB|AF F>B|"G"AF "A"EF|1 "D"DA, "G"B,C:|2 "D"D2 D2||
|:"D"d2 "D/F#"cd|"G"BA FA|"D"d2 "D/F#"cd|"G"B2 Bc|
"D"d2 "D/F#"cd|"G"BA F>B|"Asus4"AF EF|"D"D2 D2:||
|:"D"d2 "Em"e2|"D/F# (Bm)"f2 fe|"D (Bm)"dB "D/B (Bm)"Bc|"D (Bm)"d2 dA|
"G"Bd/B/ AF|Bd/B/ AF|"A"AF EF|1 "D"DA Bc:|2 "D"D2 "A"DA,||
T: Nell Fee's (Gmaj) / John Brosnan's No. 2
K: Gmaj
|:"G"G2 Ge|dB B>e|dB GA|"C"BA "D"AB|
"G"G2 Ge|dB B>e|"C"dB "D"AB|1"G"GD "C"EF:|2 "G"G2 Bd||
|:"G"ga/g/ "G/B"fg|"C"ed Bd|"G"ga "G/B"fg|"C"e2 ef|
"G"g2 "G/B"fg|"C"ed B>e|"D"dB AB|"G"GA Bd:||
|:"G"g2 "D"a2|"Em (G/B)"b3 "(D/A)"a|"(G)"ge "(Em)"e"(D/F#)"f|"(G)"g2 gd|
"C"eg/e/ dB|eg/e/ dB|"D"dB AB|1 "G"GA Bd:|2 "G"GD "D"EF||

